sites/minspec.dev/img/minspec-logo.svg

<?xml version="1.0" encoding="UTF-8" standalone="no"?>
<svg
   height="1421.6"
   preserveAspectRatio="none"
   style="display:block"
   version="1.1"
   viewBox="0 0 1421.5999 1421.6"
   width="1421.6"
   id="svg10"
   sodipodi:docname="minspec-logo.svg"
   inkscape:version="1.4.4 (dcaf3e7d9e, 2026-05-05)"
   inkscape:export-filename="minspec-logo.png"
   inkscape:export-xdpi="48"
   inkscape:export-ydpi="48"
   xmlns:inkscape="http://www.inkscape.org/namespaces/inkscape"
   xmlns:sodipodi="http://sodipodi.sourceforge.net/DTD/sodipodi-0.dtd"
   xmlns="http://www.w3.org/2000/svg"
   xmlns:svg="http://www.w3.org/2000/svg">
  <defs
     id="defs10" />
  <sodipodi:namedview
     id="namedview10"
     pagecolor="#12131b"
     bordercolor="#000000"
     borderopacity="0.25"
     inkscape:showpageshadow="2"
     inkscape:pageopacity="0.0"
     inkscape:pagecheckerboard="0"
     inkscape:deskcolor="#d1d1d1"
     inkscape:zoom="0.93896484"
     inkscape:cx="523.98128"
     inkscape:cy="711.95424"
     inkscape:window-width="3840"
     inkscape:window-height="2132"
     inkscape:window-x="1920"
     inkscape:window-y="0"
     inkscape:window-maximized="1"
     inkscape:current-layer="svg10" />
  <g
     id="g1"
     inkscape:export-filename="g1.png"
     inkscape:export-xdpi="48"
     inkscape:export-ydpi="48"
     transform="translate(-360.31639,-311.71489)">
    <path
       d="m 684.492,1311.44 c 61.765,-1.15 126.365,-0.19 188.43,-0.2 l 376.948,0.03 244.78,-0.03 80.16,-0.1 c 14.39,-0.02 28.83,-0.12 43.17,0.19 11.13,0.24 21.05,9.06 23.11,19.86 1.13,5.95 0.76,12.99 0.83,19.04 0.07,5.99 -0.04,12.02 -0.07,18.01 l -0.07,63.44 0.08,67.61 c 0.09,21.83 6.41,53.54 -21.61,58.79 l -592.59,0.12 -228.021,0.01 c -37.764,0 -75.505,0.27 -113.293,-0.04 -10.503,0.83 -22.798,-8.84 -24.163,-19.55 -1.467,-11.51 -0.987,-25.95 -0.982,-37.92 l 0.05,-66.23 0.061,-63.31 c -0.02,-23.08 -6.299,-54.58 23.18,-59.72 z"
       fill="#e4513f"
       id="path2" />
    <path
       d="m 759.951,312.392 c 4.739,-0.205 9.48,-0.341 14.223,-0.409 56.823,-0.605 114.684,0.003 171.591,0.003 l 355.325,-0.049 179.05,-0.068 54.1,0.064 c 9.61,0.019 19.84,-0.177 29.37,0.468 9.52,0.645 21.22,12.811 21.75,22.31 1.17,20.972 0.5,42.4 0.46,63.458 l 0.03,133.836 -67.07,-0.007 -0.09,-153.186 -531.463,0.076 -144.543,-0.118 c -33.22,-0.041 -75.661,-1.782 -107.396,4.255 -40.576,7.734 -77.935,27.363 -107.324,56.389 -29.884,29.524 -50.133,67.401 -58.084,108.65 -6.53,34.331 -4.829,79.961 -4.826,115.756 l 0.021,152.376 -0.011,565.304 0.248,284.23 559.728,-0.24 0.07,67.37 -407.272,-0.06 -129.444,0.14 c -16.704,0.01 -50.562,1.01 -66.204,-0.3 -4.664,-0.41 -9.085,-2.27 -12.647,-5.3 -5.43,-4.63 -9.27,-11.08 -9.478,-18.19 -0.679,-23.24 -0.214,-47.3 -0.136,-70.56 l -0.019,-132.33 -0.021,-442.91 0.011,-342.405 -0.061,-96.728 c -0.017,-24.011 -0.861,-50.623 2.544,-74.115 7.037,-51.239 28.422,-99.442 61.686,-139.046 51.303,-61.135 117.358,-91.705 195.882,-98.664 z"
       fill="#6388dc"
       id="path4" />
    <path
       d="m 743.921,1025.5 h 461.519 l 152.08,0.01 c 25.17,0 50.53,-0.18 75.69,0.03 5.56,0.04 15.7,0.76 19.78,4.37 7.37,6.16 10.66,15.42 10.47,24.99 -1.13,55.92 0.5,111.96 -0.68,167.85 -0.53,8.73 -8.92,19.16 -18.07,20.2 -19.28,2.17 -41.67,1.11 -61.21,1.02 l -460.538,-0.05 -151.851,0.04 c -26.163,0 -52.503,0.12 -78.659,-0.12 -5.227,-0.05 -17.098,-0.94 -20.983,-4.35 -7.056,-5.92 -10.201,-15.27 -9.999,-24.4 1.238,-56.09 -0.76,-112.31 0.703,-168.35 0.122,-4.66 3.816,-11.04 7.116,-14.26 3.025,-2.99 6.838,-5.05 10.993,-5.95 8.836,-2 51.507,-1.07 63.639,-1.03 z"
       fill="#f3bf70"
       id="path5" />
    <path
       d="m 682.936,742.363 c 27.435,-0.726 57.055,-0.227 84.658,-0.227 l 152.422,-0.018 114.464,-0.03 c 18.99,-0.003 61.35,-2.392 79.44,3.873 13.24,4.589 11.29,27.87 11.25,40.602 l 0.01,47.655 0.08,69.379 c 0.03,21.99 6.16,50.315 -22.35,54.991 -66.67,1.653 -139.757,-0.442 -207.126,-0.514 L 784.047,958.2 c -32.911,0.269 -70.093,1.401 -103.257,-0.585 -5.794,-0.347 -15.268,-8.688 -16.837,-14.162 -1.174,-4.096 -2.343,-9.726 -2.394,-14.175 -0.416,-46.063 0.4,-92.169 0.046,-138.233 -0.163,-21.138 -3.829,-41.404 21.331,-48.682 z"
       fill="#6388dc"
       id="path7" />
    <path
       d="m 682.394,491.192 c 65.231,-1.318 131.304,0.631 196.62,-0.041 9.76,-0.1 16.632,1.874 22.914,9.462 6.749,8.152 5.127,15.657 5.396,25.476 -0.134,41.865 0.068,83.719 -0.207,125.577 -0.098,14.944 -5.534,21.668 -19.635,26.303 -40.748,0.803 -81.624,0.136 -122.386,0.193 -25.224,0.035 -51.305,1.452 -76.43,-0.015 -4.609,-0.27 -9.923,-0.816 -14.149,-2.706 -5.097,-2.279 -9.518,-8.675 -11.269,-13.806 -2.835,-8.309 -2.307,-129.968 -1.25,-146.033 0.248,-3.775 0.572,-7.14 2.326,-10.566 3.892,-7.603 10.277,-11.134 18.07,-13.844 z"
       fill="#65c991"
       id="path9"
       inkscape:export-filename="minspec-logo-cropped.png"
       inkscape:export-xdpi="48"
       inkscape:export-ydpi="48" />
  </g>
  <metadata
     id="metadata10">
    <recraft-signature>{&quot;signed_by&quot;: &quot;recraft&quot;, &quot;signature_b64&quot;: &quot;3ONgojWwpLI4QTxWmnxHMgL1o7Msp1DlUVlOmFfz1Ww89S+/f1vvXuyInHJjj9EgC7cjuwFiQ1g4+oDCM/u9CQ==&quot;, &quot;signing_algo&quot;: &quot;Ed25519&quot;, &quot;generation_timestamp&quot;: 1779841417, &quot;identifier&quot;: &quot;e970e6df-7d04-460d-8bc0-6448212bd58d&quot;}</recraft-signature>
  </metadata>
</svg>

<?xml version="1.0" encoding="UTF-8" standalone="no"?>
<svg
   height="2048"
   preserveAspectRatio="none"
   style="display: block;"
   version="1.1"
   viewBox="0 0 2048 2048"
   width="2048"
   id="svg10"
   sodipodi:docname="minspec-logo.svg"
   inkscape:version="1.4.2 (ebf0e940d0, 2025-05-08)"
   xmlns:inkscape="http://www.inkscape.org/namespaces/inkscape"
   xmlns:sodipodi="http://sodipodi.sourceforge.net/DTD/sodipodi-0.dtd"
   xmlns="http://www.w3.org/2000/svg"
   xmlns:svg="http://www.w3.org/2000/svg">
  <defs
     id="defs10" />
  <sodipodi:namedview
     id="namedview10"
     pagecolor="#ffffff"
     bordercolor="#000000"
     borderopacity="0.25"
     inkscape:showpageshadow="2"
     inkscape:pageopacity="0.0"
     inkscape:pagecheckerboard="0"
     inkscape:deskcolor="#d1d1d1"
     inkscape:zoom="0.93896484"
     inkscape:cx="1024"
     inkscape:cy="1024"
     inkscape:window-width="3840"
     inkscape:window-height="2132"
     inkscape:window-x="1920"
     inkscape:window-y="0"
     inkscape:window-maximized="1"
     inkscape:current-layer="svg10" />
  <path
     d="M 0 0 L 2048 0 L 2048 2048 L 0 2048 L 0 0 z"
     fill="rgb(18,19,27)"
     transform="translate(0,0)"
     id="path1" />
  <path
     d="M 684.492 1311.44 C 746.257 1310.29 810.857 1311.25 872.922 1311.24 L 1249.87 1311.27 L 1494.65 1311.24 L 1574.81 1311.14 C 1589.2 1311.12 1603.64 1311.02 1617.98 1311.33 C 1629.11 1311.57 1639.03 1320.39 1641.09 1331.19 C 1642.22 1337.14 1641.85 1344.18 1641.92 1350.23 C 1641.99 1356.22 1641.88 1362.25 1641.85 1368.24 L 1641.78 1431.68 L 1641.86 1499.29 C 1641.95 1521.12 1648.27 1552.83 1620.25 1558.08 L 1027.66 1558.2 L 799.639 1558.21 C 761.875 1558.21 724.134 1558.48 686.346 1558.17 C 675.843 1559 663.548 1549.33 662.183 1538.62 C 660.716 1527.11 661.196 1512.67 661.201 1500.7 L 661.251 1434.47 L 661.312 1371.16 C 661.292 1348.08 655.013 1316.58 684.492 1311.44 z"
     fill="rgb(228,81,63)"
     transform="translate(0,0)"
     id="path2" />
  <path
     d="M 759.951 312.392 C 764.69 312.187 769.431 312.051 774.174 311.983 C 830.997 311.378 888.858 311.986 945.765 311.986 L 1301.09 311.937 L 1480.14 311.869 L 1534.24 311.933 C 1543.85 311.952 1554.08 311.756 1563.61 312.401 C 1573.13 313.046 1584.83 325.212 1585.36 334.711 C 1586.53 355.683 1585.86 377.111 1585.82 398.169 L 1585.85 532.005 L 1518.78 531.998 L 1518.69 378.812 L 987.227 378.888 L 842.684 378.77 C 809.464 378.729 767.023 376.988 735.288 383.025 C 694.712 390.759 657.353 410.388 627.964 439.414 C 598.08 468.938 577.831 506.815 569.88 548.064 C 563.35 582.395 565.051 628.025 565.054 663.82 L 565.075 816.196 L 565.064 1381.5 L 565.312 1665.73 L 1125.04 1665.49 L 1125.11 1732.86 L 717.838 1732.8 L 588.394 1732.94 C 571.69 1732.95 537.832 1733.95 522.19 1732.64 C 517.526 1732.23 513.105 1730.37 509.543 1727.34 C 504.113 1722.71 500.273 1716.26 500.065 1709.15 C 499.386 1685.91 499.851 1661.85 499.929 1638.59 L 499.91 1506.26 L 499.889 1063.35 L 499.9 720.945 L 499.839 624.217 C 499.822 600.206 498.978 573.594 502.383 550.102 C 509.42 498.863 530.805 450.66 564.069 411.056 C 615.372 349.921 681.427 319.351 759.951 312.392 z"
     fill="rgb(99,136,220)"
     transform="translate(0,0)"
     id="path4" />
  <path
     d="M 743.921 1025.5 L 1205.44 1025.5 L 1357.52 1025.51 C 1382.69 1025.51 1408.05 1025.33 1433.21 1025.54 C 1438.77 1025.58 1448.91 1026.3 1452.99 1029.91 C 1460.36 1036.07 1463.65 1045.33 1463.46 1054.9 C 1462.33 1110.82 1463.96 1166.86 1462.78 1222.75 C 1462.25 1231.48 1453.86 1241.91 1444.71 1242.95 C 1425.43 1245.12 1403.04 1244.06 1383.5 1243.97 L 922.962 1243.92 L 771.111 1243.96 C 744.948 1243.96 718.608 1244.08 692.452 1243.84 C 687.225 1243.79 675.354 1242.9 671.469 1239.49 C 664.413 1233.57 661.268 1224.22 661.47 1215.09 C 662.708 1159 660.71 1102.78 662.173 1046.74 C 662.295 1042.08 665.989 1035.7 669.289 1032.48 C 672.314 1029.49 676.127 1027.43 680.282 1026.53 C 689.118 1024.53 731.789 1025.46 743.921 1025.5 z"
     fill="rgb(243,191,112)"
     transform="translate(0,0)"
     id="path5" />
  <path
     d="M 682.936 742.363 C 710.371 741.637 739.991 742.136 767.594 742.136 L 920.016 742.118 L 1034.48 742.088 C 1053.47 742.085 1095.83 739.696 1113.92 745.961 C 1127.16 750.55 1125.21 773.831 1125.17 786.563 L 1125.18 834.218 L 1125.26 903.597 C 1125.29 925.587 1131.42 953.912 1102.91 958.588 C 1036.24 960.241 963.153 958.146 895.784 958.074 L 784.047 958.2 C 751.136 958.469 713.954 959.601 680.79 957.615 C 674.996 957.268 665.522 948.927 663.953 943.453 C 662.779 939.357 661.61 933.727 661.559 929.278 C 661.143 883.215 661.959 837.109 661.605 791.045 C 661.442 769.907 657.776 749.641 682.936 742.363 z"
     fill="rgb(99,136,220)"
     transform="translate(0,0)"
     id="path7" />
  <path
     d="M 682.394 491.192 C 747.625 489.874 813.698 491.823 879.014 491.151 C 888.774 491.051 895.646 493.025 901.928 500.613 C 908.677 508.765 907.055 516.27 907.324 526.089 C 907.19 567.954 907.392 609.808 907.117 651.666 C 907.019 666.61 901.583 673.334 887.482 677.969 C 846.734 678.772 805.858 678.105 765.096 678.162 C 739.872 678.197 713.791 679.614 688.666 678.147 C 684.057 677.877 678.743 677.331 674.517 675.441 C 669.42 673.162 664.999 666.766 663.248 661.635 C 660.413 653.326 660.941 531.667 661.998 515.602 C 662.246 511.827 662.57 508.462 664.324 505.036 C 668.216 497.433 674.601 493.902 682.394 491.192 z"
     fill="rgb(101,201,145)"
     transform="translate(0,0)"
     id="path9" />
  <metadata
     id="metadata10">
    <recraft-signature>{&quot;signed_by&quot;: &quot;recraft&quot;, &quot;signature_b64&quot;: &quot;3ONgojWwpLI4QTxWmnxHMgL1o7Msp1DlUVlOmFfz1Ww89S+/f1vvXuyInHJjj9EgC7cjuwFiQ1g4+oDCM/u9CQ==&quot;, &quot;signing_algo&quot;: &quot;Ed25519&quot;, &quot;generation_timestamp&quot;: 1779841417, &quot;identifier&quot;: &quot;e970e6df-7d04-460d-8bc0-6448212bd58d&quot;}</recraft-signature>
  </metadata>
</svg>
